client/src/assets/images/global/playlists.svg

<svg width="24px" height="24px" viewBox="0 0 24 24" version="1.1" xmlns="http://www.w3.org/2000/svg" xmlns:xlink="http://www.w3.org/1999/xlink">
    <g id="Page-1" stroke="none" stroke-width="1" fill="none" fill-rule="evenodd">
        <g id="Artboard-4" transform="translate(-664.000000, -467.000000)" stroke="#000000">
            <g id="175" transform="translate(664.000000, 467.000000)">
                <path stoke="#000000" d="M7.5,7 C7.5,6.72427445 7.72568093,6.5 8.00684547,6.5 L19.9931545,6.5 C20.2754761,6.5 20.5,6.72240424 20.5,7 C20.5,7.27572555 20.2743191,7.5 19.9931545,7.5 L8.00684547,7.5 C7.72452386,7.5 7.5,7.27759576 7.5,7 Z M7.5,12 C7.5,11.7242745 7.72568093,11.5 8.00684547,11.5 L19.9931545,11.5 C20.2754761,11.5 20.5,11.7224042 20.5,12 C20.5,12.2757255 20.2743191,12.5 19.9931545,12.5 L8.00684547,12.5 C7.72452386,12.5 7.5,12.2775958 7.5,12 Z M7.5,17 C7.5,16.7242745 7.72568093,16.5 8.00684547,16.5 L19.9931545,16.5 C20.2754761,16.5 20.5,16.7224042 20.5,17 C20.5,17.2757255 20.2743191,17.5 19.9931545,17.5 L8.00684547,17.5 C7.72452386,17.5 7.5,17.2775958 7.5,17 Z M4,7.5 C3.72385763,7.5 3.5,7.27614237 3.5,7 C3.5,6.72385763 3.72385763,6.5 4,6.5 C4.27614237,6.5 4.5,6.72385763 4.5,7 C4.5,7.27614237 4.27614237,7.5 4,7.5 Z M4,12.5 C3.72385763,12.5 3.5,12.2761424 3.5,12 C3.5,11.7238576 3.72385763,11.5 4,11.5 C4.27614237,11.5 4.5,11.7238576 4.5,12 C4.5,12.2761424 4.27614237,12.5 4,12.5 Z M4,17.5 C3.72385763,17.5 3.5,17.2761424 3.5,17 C3.5,16.7238576 3.72385763,16.5 4,16.5 C4.27614237,16.5 4.5,16.7238576 4.5,17 C4.5,17.2761424 4.27614237,17.5 4,17.5 Z" id="Combined-Shape"/>
            </g>
        </g>
    </g>
</svg>

<svg xmlns="http://www.w3.org/2000/svg" viewBox="0 0 24 24">
  <defs/>
  <path fill="none" fill-rule="evenodd" stroke="#000" d="M7.5 7c0-.3.2-.5.5-.5h12c.3 0 .5.2.5.5s-.2.5-.5.5H8a.5.5 0 01-.5-.5zm0 5c0-.3.2-.5.5-.5h12c.3 0 .5.2.5.5s-.2.5-.5.5H8a.5.5 0 01-.5-.5zm0 5c0-.3.2-.5.5-.5h12c.3 0 .5.2.5.5s-.2.5-.5.5H8a.5.5 0 01-.5-.5zM4 7.5a.5.5 0 110-1 .5.5 0 010 1zm0 5a.5.5 0 110-1 .5.5 0 010 1zm0 5a.5.5 0 110-1 .5.5 0 010 1z"/>
</svg>
